images/insta.svg

<svg width="25" height="24" viewBox="0 0 25 24" fill="none" xmlns="http://www.w3.org/2000/svg">
<path fill-rule="evenodd" clip-rule="evenodd" d="M12.1002 0C8.84122 0 8.43322 0.014 7.15322 0.072C2.79522 0.272 0.37322 2.69 0.17322 7.052C0.11422 8.333 0.10022 8.741 0.10022 12C0.10022 15.259 0.11422 15.668 0.17222 16.948C0.37222 21.306 2.79022 23.728 7.15222 23.928C8.43322 23.986 8.84122 24 12.1002 24C15.3592 24 15.7682 23.986 17.0482 23.928C21.4022 23.728 23.8302 21.31 24.0272 16.948C24.0862 15.668 24.1002 15.259 24.1002 12C24.1002 8.741 24.0862 8.333 24.0282 7.053C23.8322 2.699 21.4112 0.273 17.0492 0.073C15.7682 0.014 15.3592 0 12.1002 0ZM12.1002 2.163C15.3042 2.163 15.6842 2.175 16.9502 2.233C20.2022 2.381 21.7212 3.924 21.8692 7.152C21.9272 8.417 21.9382 8.797 21.9382 12.001C21.9382 15.206 21.9262 15.585 21.8692 16.85C21.7202 20.075 20.2052 21.621 16.9502 21.769C15.6842 21.827 15.3062 21.839 12.1002 21.839C8.89622 21.839 8.51622 21.827 7.25122 21.769C3.99122 21.62 2.48022 20.07 2.33222 16.849C2.27422 15.584 2.26222 15.205 2.26222 12C2.26222 8.796 2.27522 8.417 2.33222 7.151C2.48122 3.924 3.99622 2.38 7.25122 2.232C8.51722 2.175 8.89622 2.163 12.1002 2.163ZM5.93822 12C5.93822 8.597 8.69722 5.838 12.1002 5.838C15.5032 5.838 18.2622 8.597 18.2622 12C18.2622 15.404 15.5032 18.163 12.1002 18.163C8.69722 18.163 5.93822 15.403 5.93822 12ZM12.1002 16C9.89122 16 8.10022 14.21 8.10022 12C8.10022 9.791 9.89122 8 12.1002 8C14.3092 8 16.1002 9.791 16.1002 12C16.1002 14.21 14.3092 16 12.1002 16ZM17.0652 5.595C17.0652 4.8 17.7102 4.155 18.5062 4.155C19.3012 4.155 19.9452 4.8 19.9452 5.595C19.9452 6.39 19.3012 7.035 18.5062 7.035C17.7102 7.035 17.0652 6.39 17.0652 5.595Z" fill="#FEFCF7"/>
</svg>

<svg width="25" height="24" fill="none" xmlns="http://www.w3.org/2000/svg"><path fill-rule="evenodd" clip-rule="evenodd" d="M12.1 0C8.841 0 8.433.014 7.153.072 2.795.272.373 2.69.173 7.052.114 8.333.1 8.741.1 12c0 3.259.014 3.668.072 4.948.2 4.358 2.618 6.78 6.98 6.98 1.281.058 1.69.072 4.948.072 3.26 0 3.668-.014 4.948-.072 4.354-.2 6.782-2.618 6.98-6.98.058-1.28.072-1.689.072-4.948 0-3.259-.014-3.667-.072-4.947-.196-4.354-2.617-6.78-6.979-6.98C15.77.014 15.36 0 12.1 0Zm0 2.163c3.204 0 3.584.012 4.85.07 3.252.148 4.771 1.691 4.92 4.919.057 1.265.068 1.645.068 4.849 0 3.205-.012 3.584-.069 4.849-.149 3.225-1.664 4.771-4.919 4.919-1.266.058-1.644.07-4.85.07-3.204 0-3.584-.012-4.849-.07-3.26-.149-4.77-1.699-4.919-4.92-.058-1.265-.07-1.644-.07-4.849 0-3.204.013-3.583.07-4.849.15-3.227 1.664-4.771 4.92-4.919 1.265-.057 1.644-.069 4.848-.069ZM5.938 12a6.162 6.162 0 1 1 12.325 0 6.162 6.162 0 0 1-12.325 0Zm6.162 4a4 4 0 1 1 0-8 4 4 0 0 1 0 8Zm4.965-10.405a1.44 1.44 0 1 1 2.881.001 1.44 1.44 0 0 1-2.88-.001Z" fill="#FEFCF7"/></svg>
